assets/images/vector/icons/bullhorn_icon.svg

<svg fill="none" height="60" viewBox="0 0 60 60" width="60" xmlns="http://www.w3.org/2000/svg"><path d="m28.5173 35.0002 3.2734 15.49c.38 1.8-.77 3.57-2.5734 3.95l-3.26.69c-1.8.38-3.57-.77-3.95-2.5733l-3.6733-17.5567" stroke="#111" stroke-linecap="round" stroke-linejoin="round" stroke-width="10"/><path d="m53.1167 18.8735c-.39.3167-.6167.79-.6167 1.2934v7.9966c0 .5034.2267.9767.6167 1.2934.39.3166.9033.44 1.3933.3366 2.74-.5766 4.6567-2.8933 4.6567-5.63 0-2.7366-1.9167-5.0533-4.6567-5.63-.49-.1033-1.0033.02-1.3933.3367z" fill="#111"/><g stroke="#111" stroke-linecap="round" stroke-linejoin="round" stroke-width="10"><path d="m46.6667 43.3336s-6.4567-8.3334-14.1667-8.3334c-7.7067 0-16.6667 0-16.6667 0-5.9833 0-10.8333-4.85-10.8333-10.8333s4.85-10.8333 10.8333-10.8333h16.6667c7.7067 0 14.1667-8.33336 14.1667-8.33336z"/><path d="m18.334 13.3335v21.6667"/></g></svg>

<svg width="60" height="60" viewBox="0 0 60 60" fill="none" xmlns="http://www.w3.org/2000/svg">
<path d="M28.5173 35.0002L31.7907 50.4902C32.1707 52.2902 31.0207 54.0602 29.2173 54.4402L25.9573 55.1302C24.1573 55.5102 22.3873 54.3602 22.0073 52.5569L18.334 35.0002" stroke="#111111" stroke-width="10" stroke-linecap="round" stroke-linejoin="round"/>
<path d="M53.1167 18.8735C52.7267 19.1902 52.5 19.6635 52.5 20.1669V28.1635C52.5 28.6669 52.7267 29.1402 53.1167 29.4569C53.5067 29.7735 54.02 29.8969 54.51 29.7935C57.25 29.2169 59.1667 26.9002 59.1667 24.1635C59.1667 21.4269 57.25 19.1102 54.51 18.5335C54.02 18.4302 53.5067 18.5535 53.1167 18.8702V18.8735Z" fill="#111111"/>
<path d="M46.6667 43.3336C46.6667 43.3336 40.21 35.0002 32.5 35.0002C24.7933 35.0002 15.8333 35.0002 15.8333 35.0002C9.85 35.0002 5 30.1502 5 24.1669C5 18.1836 9.85 13.3336 15.8333 13.3336H32.5C40.2067 13.3336 46.6667 5.00024 46.6667 5.00024V43.3336Z" stroke="#111111" stroke-width="10" stroke-linecap="round" stroke-linejoin="round"/>
<path d="M18.334 13.3335V35.0002" stroke="#111111" stroke-width="10" stroke-linecap="round" stroke-linejoin="round"/>
</svg>
